X: 97
T:Miss Jean Stewart
M:C
L:1/8
R:Strathspey
K:A % 3 sharps
E2|C<A, [EA>]c [FB]A F2|A<EA>c e&gt;fe&gt;c|[Fd&gt;]e f/e/d/c/ d/c/B/A/ [D2F2]|[1[C/2A/2]E3/2[D3/2F3/2]E/2 [CA]EAc:|!
|[2 [C3/2A3/2]B/2[E3/2G3/2c3/2]B/2 [C/2A/2]E3/2A<C|| B A c e name="D1X098" <A % f | ! d 2 2A<c|| 2]E3 2A [C 2]B 2c3 2G3 2[E3 2A3 [C3 :||[2 [CA]EAc 2]E 2F3 2[D3 [[C3 [D2F2]|[1 2]e 2d3 [F3 2]c3 2e 2[E 2]a3 [A 2[Ee]c 2]f 2e3 [E3 [D2F2] 2B3 [[E3></A>

